!!!OTL: 82. Reihe, Reihe, Rose.
!!!ARE: Europa, Mitteleuropa, Deutschland; France, Unter - Elsass
!!!SCT: K2082
!!!TXL: @@NDS
!!!YEM: Copyright 1995, estate of Helmut Schaffrath.
**kern	**text
*clefG2	*
*M2/4	*
*k[b-]	*
*F:	*
=1	=1
{8cc	Rei-
8dd	-he,
8cc	Rei-
8dd	-he,
=2	=2
4cc	Ro-
8a	-ſe,
8r}	.
=3	=3
{8cc	D'Kiechle
8dd	.
8cc	ſin
8dd	ge-
=4	=4
4cc	-blo-
8a}	-ſe;
{8a	un
=5	=5
8cc	wenn
8cc	mei
16a	Müeter
16a	.
8a	ken
=6	=6
8cc	Kiech-
8cc	-le
8a}	bacht,
{8a	ſo
=7	=7
16cc	mach
16cc	i
16cc	de
16a	Bündel
8a	.
8a	un
=8	=8
8cc	ſå
16cc	gu-
16cc	-et
4a;}	Nacht!
=9||	=9||
{16f	Schlepperle,
16f	.
8f	.
16f	ſchlepper-
16f	.
8f	-le,
=10	=10
8cc	hup-
8cc	-ſa-
4a;}	-ſa!
==	==
!!!AGN: Kinder - Lied, Reigen, Tanz - Spiel
!!!ONB: ESAC (Essen Associative Code) Database: KINDER
!!!AMT: simple duple
!!!AIN: vox
!!!EED: Helmut Schaffrath
!!!EEV: 1.0
!!Unter-Elsass 1896.
!!!GTL: Zweites Buch. Kinderspiel: 2. Reigen und Tanzspiele. / A. Ringelreihen mit Niederfallen.
!!@@COMMENT:"Bei den Schlußſilben ſitʒen alle nieder. Ʒum Text vergl. Nr. 506."
!!@@END:
!!!URL-scan: https://archive.org/details/DeutschesKinderliedUndKinderspiel/page/445/mode/1up
!!!ENC: Anna Maria Matuszewska
!!!EEV: 2024/02/09
*-	*-
